!!!OTL: Der Spielmannssohn.
!!!OTL-incipit: Als ich ein kleines Buebeli war,
!!!ARE: Europa, Mitteleuropa, Deutschland / France, Lothringen
!!!YOR: 3, S. 178
!!    1890 aufgezeichnet
!!!SCT: Q0062E
!!!TXL: @@DE
!!!YEM: Copyright 1995, estate of Helmut Schaffrath.
**kern	**text
*ICvox	*
*M6/8	*
*k[b-]	*
*F:	*
!LO:TX:a:t=Ziemlich lebhaft.	!
{8c	Als
=1	=1
[8.f	ich
16f]	.
8f	ein
4g	kleines
8cc	.
=2	=2
8.a	Bü-
16g	-be-
8a	-li
4f}	war,
{8f	klein's
=3	=3
8.g	Bü-
16a	-be-
8b-	-li
8.ccL	in
16b-J	.
8a	der
=4	=4
8.fL	Wie-
16g	.
8aJ	.
4g}	-ge,
{8g	ſo
=5	=5
8.cc	hat
16dd	mir
8cc	mein
8b-	.
8a	Vater
16g	ein'
16g	.
=6	=6
8.f	Gei-
16c	-ge
8a	gekauft
4g}	.
{8f;	und
=7	=7
8gL	.
8aJ	hat
8cc	mich
8.ccL	leh-
16b-J	.
8a	-ren
=8	=8
4.g	gei-
4f}	-gen.
==	==
!!!AGN: Ballade, Verfuehrung, Standesunterschied, Strafe, Gnade
!! Kleinere Melodievarianten aus anderer Quelle im gleichen System
!!    abgedruckt
!!!ONB: ESAC (Essen Associative Code) Database: BALLADE
!!!AMT: compound duple
!!!AIN: vox
!!!EED: Helmut Schaffrath
!!!EEV: 1.0
!!!source: Deutsche Volkslieder mit ihren Melodien. Herausgegeben vom Deutschen Volksliedarchiv. Dritter Band Balladen. Berlin 1954.
!!!page: 178
!!!ENC: Anna Maria Matuszewska
!!!EEV: 2025/02/21
*-	*-
